X:1
T:Title
%%score { 1 | ( 2 3 ) }
L:1/8
Q:1/4=110
M:4/4
K:C
V:1 treble nm="Grand Piano"
V:2 bass 
V:3 bass 
V:1
 [EG]2 E>[DF] [EG]2 [Ec]2 | [EG]2 E2 [EG]2 [EG]2 | [B,DF]3 [CE] [DF]2 [EG]2 | [CE]6 z2 | %4
w: D.~B.~Towner * * * *||||
 [EG]2 E>[DF] [EG]2 [Ec]2 | [EG]2 E2 [EG]2 [Gc]2 | d3 A B2 d2 |[M:3/4] [Ec]6 |[M:1/4] c2 | %9
w: |||||
[M:4/4] c3 c c2 A2 | [CEG]6 [CGc]2 | d3 d d2 B2 | [CEc]6 [CEG]2 | [CFA]2 [CGB]2 [CAc]2 [CFA]2 | %14
w: |||||
 [CEG]3 [G,CE] [CEG]4 | G2 F2 F3 D | [FA]2 [EG]2 [EG]2 [Gc]2 | d3 A B2 d2 | [Ec]6 z2 |] %19
w: |||||
V:2
 [C,C]2 [C,C]>[C,C] [C,C]2 [C,G,]2 | [C,C]2 [C,C]2 [C,C]2 [C,C]2 | G,,3 G,, [G,,G,]2 [G,,G,]2 | %3
 [C,G,]6 z2 | [C,C]2 [C,C]>[C,C] [C,C]2 [C,G,]2 | [C,C]2 [C,C]2 [C,C]2 [E,C]2 | %6
 [F,A,F]3 [F,DF] [G,DF]2 [G,F]2 |[M:3/4][K:bass] [C,G,]6 |[M:1/4] [E,G,E]2 | %9
[M:4/4] [F,A,F]3 [F,A,F] [F,A,F]2 [F,CF]2 | C,C,E,G, C,2 E,2 | [G,B,F]3 [G,B,F] [G,B,F]2 [G,DF]2 | %12
 C,C,E,G, C,2 C,2 | F,2 F,2 F,2 F,2 | C,3 C, C,4 | [G,CE]2 [G,B,D]2 [G,B,D]3 [G,B,] | %16
 [C,C]2 [C,C]2 [C,C]2 [E,C]2 | [F,A,F]3 [G,DF] [G,DF]2 [G,F]2 | G,3 G,- G,2 z2 |] %19
V:3
 x8 | x8 | x8 | x8 | x8 | x8 | x8 |[M:3/4][K:bass] x6 |[M:1/4] x2 |[M:4/4] x8 | x8 | x8 | x8 | x8 | %14
 x8 | x8 | x8 | x8 | C,C, .E,2 C,2 z2 |] %19

